src/assets/duotone/EmojiHappy.svg

<svg width="24" height="24" viewBox="0 0 24 24"  xmlns="http://www.w3.org/2000/svg">
<path opacity="0.4" d="M16.19 2H7.81C4.17 2 2 4.17 2 7.81V16.18C2 19.83 4.17 22 7.81 22H16.18C19.82 22 21.99 19.83 21.99 16.19V7.81C22 4.17 19.83 2 16.19 2Z" />
<path d="M15.5001 10.1301C16.5384 10.1301 17.3801 9.28841 17.3801 8.25012C17.3801 7.21182 16.5384 6.37012 15.5001 6.37012C14.4618 6.37012 13.6201 7.21182 13.6201 8.25012C13.6201 9.28841 14.4618 10.1301 15.5001 10.1301Z" />
<path d="M8.50012 10.1301C9.53841 10.1301 10.3801 9.28841 10.3801 8.25012C10.3801 7.21182 9.53841 6.37012 8.50012 6.37012C7.46182 6.37012 6.62012 7.21182 6.62012 8.25012C6.62012 9.28841 7.46182 10.1301 8.50012 10.1301Z" />
<path d="M15.5999 12.9199H8.39988C7.69988 12.9199 7.12988 13.4899 7.12988 14.1999C7.12988 16.8899 9.31988 19.0799 12.0099 19.0799C14.6999 19.0799 16.8899 16.8899 16.8899 14.1999C16.8799 13.4999 16.2999 12.9199 15.5999 12.9199Z" />
</svg>

<?xml version="1.0" encoding="UTF-8"?>
<svg width="24" height="24" viewBox="0 0 24 24" xmlns="http://www.w3.org/2000/svg">
 <path d="M16.19 2H7.81C4.17 2 2 4.17 2 7.81V16.18C2 19.83 4.17 22 7.81 22H16.18C19.82 22 21.99 19.83 21.99 16.19V7.81C22 4.17 19.83 2 16.19 2Z" opacity=".4"/>
 <path d="m15.5 10.13c1.0383 0 1.88-0.84169 1.88-1.88 0-1.0383-0.8417-1.88-1.88-1.88s-1.88 0.8417-1.88 1.88c0 1.0383 0.8417 1.88 1.88 1.88z"/>
 <path d="m8.5001 10.13c1.0383 0 1.88-0.84169 1.88-1.88 0-1.0383-0.84169-1.88-1.88-1.88-1.0383 0-1.88 0.8417-1.88 1.88 0 1.0383 0.8417 1.88 1.88 1.88z"/>
 <path d="m15.6 12.92h-7.2c-0.7 0-1.27 0.57-1.27 1.28 0 2.69 2.19 4.88 4.88 4.88 2.69 0 4.88-2.19 4.88-4.88-0.01-0.7-0.59-1.28-1.29-1.28z"/>
</svg>
